( pcb2gcode 2.5.0 )
( Software-independent Gcode )

G94 ( Millimeters per minute feed rate. )
G21 ( Units == Millimeters. )

G90 ( Absolute coordinates. )
G00 S20000 ( RPM spindle speed. )
G01 F600.00000 ( Feedrate. )


G00 Z10.00000 (Retract to tool change height)
T0
M5      (Spindle stop.)
G04 P1.00000 (Wait for spindle to stop)
(MSG, Change tool bit to mill diameter 0.40000mm)
M6      (Tool change.)
M0      (Temporary machine stop.)
M3 ( Spindle on clockwise. )
G04 P1.00000 (Wait for spindle to get up to speed)
G04 P0 ( dwell for no time -- G64 should not smooth over this point )
G00 Z3.00000 ( retract )

G00 X3.53999 Y3.73999 ( rapid move to begin. )
G01 F300.00000
( Mill infeed pass 1/1 )
G01 Z-3.50000
G04 P0 ( dwell for no time -- G64 should not smooth over this point )
G01 F600.00000
G01 X3.53999 Y3.73999
G01 X3.54382 Y3.70097
G01 X3.55520 Y3.66341
G01 X3.57370 Y3.62886
G01 X3.59856 Y3.59856
G01 X3.62886 Y3.57370
G01 X3.66341 Y3.55520
G01 X3.70097 Y3.54382
G01 X3.73999 Y3.53999
G01 X5.43999 Y3.53999
G01 X5.47900 Y3.54382
G01 X5.51652 Y3.55520
G01 X5.55111 Y3.57370
G01 X5.58141 Y3.59856
G01 X5.60628 Y3.62886
G01 X5.62477 Y3.66341
G01 X5.63615 Y3.70097
G01 X5.63999 Y3.73999
G01 X5.63999 Y5.07430
G01 X8.04783 Y7.48215
G01 X8.06101 Y7.49670
G01 X8.07193 Y7.50998
G01 X8.08999 Y7.50998
G01 X8.12901 Y7.51382
G01 X8.16652 Y7.52522
G01 X8.20109 Y7.54369
G01 X8.23142 Y7.56856
G01 X8.25629 Y7.59888
G01 X8.27475 Y7.63345
G01 X8.28613 Y7.67097
G01 X8.28999 Y7.70998
G01 X8.28999 Y9.40998
G01 X8.28613 Y9.44899
G01 X8.27475 Y9.48654
G01 X8.25629 Y9.52111
G01 X8.23142 Y9.55141
G01 X8.20109 Y9.57627
G01 X8.16652 Y9.59477
G01 X8.12901 Y9.60614
G01 X8.08999 Y9.60998
G01 X7.43998 Y9.60998
G01 X7.40097 Y9.60614
G01 X7.36345 Y9.59477
G01 X7.32888 Y9.57627
G01 X7.29855 Y9.55141
G01 X7.27369 Y9.52111
G01 X7.25522 Y9.48654
G01 X7.24384 Y9.44899
G01 X7.23998 Y9.40998
G01 X7.23998 Y7.80567
G01 X5.07430 Y5.63999
G01 X3.73999 Y5.63999
G01 X3.70097 Y5.63615
G01 X3.66341 Y5.62477
G01 X3.62886 Y5.60628
G01 X3.59856 Y5.58141
G01 X3.57370 Y5.55111
G01 X3.55520 Y5.51652
G01 X3.54382 Y5.47900
G01 X3.53999 Y5.43999
G01 X3.53999 Y3.73999
G01 X3.48998 Y10.23500
G01 X3.48998 Y11.05999
G01 X3.49109 Y11.08089
G01 X3.49656 Y11.13286
G01 X3.49983 Y11.15354
G01 X3.50524 Y11.17376
G01 X3.52140 Y11.22346
G01 X3.52889 Y11.24302
G01 X3.53839 Y11.26167
G01 X3.56453 Y11.30693
G01 X3.57593 Y11.32448
G01 X3.58911 Y11.34076
G01 X3.62406 Y11.37960
G01 X3.63887 Y11.39441
G01 X3.65515 Y11.40759
G01 X3.69742 Y11.43830
G01 X3.71500 Y11.44970
G01 X3.73364 Y11.45920
G01 X3.78139 Y11.48046
G01 X3.80092 Y11.48795
G01 X3.82114 Y11.49339
G01 X3.87227 Y11.50424
G01 X3.89295 Y11.50751
G01 X3.91385 Y11.50863
G01 X3.92609 Y11.50863
G01 X3.93999 Y11.50998
G01 X5.23999 Y11.50998
G01 X5.25388 Y11.50863
G01 X5.26612 Y11.50863
G01 X5.28703 Y11.50751
G01 X5.30770 Y11.50424
G01 X5.35883 Y11.49339
G01 X5.37903 Y11.48795
G01 X5.39858 Y11.48046
G01 X5.44634 Y11.45920
G01 X5.46498 Y11.44970
G01 X5.48256 Y11.43830
G01 X5.52482 Y11.40759
G01 X5.54110 Y11.39441
G01 X5.55591 Y11.37960
G01 X5.59086 Y11.34076
G01 X5.60404 Y11.32448
G01 X5.61545 Y11.30693
G01 X5.64159 Y11.26167
G01 X5.65109 Y11.24302
G01 X5.65858 Y11.22346
G01 X5.67473 Y11.17376
G01 X5.68014 Y11.15354
G01 X5.68342 Y11.13286
G01 X5.68888 Y11.08089
G01 X5.69000 Y11.05999
G01 X5.69000 Y11.04749
G01 X10.58750 Y11.04749
G01 X10.60708 Y11.04653
G01 X10.64610 Y11.04267
G01 X10.66553 Y11.03980
G01 X10.68455 Y11.03502
G01 X10.72207 Y11.02364
G01 X10.74056 Y11.01704
G01 X10.75831 Y11.00863
G01 X10.79288 Y10.99016
G01 X10.82547 Y10.96837
G01 X10.85577 Y10.94351
G01 X10.87033 Y10.93032
G01 X11.85783 Y9.94282
G01 X11.87101 Y9.92827
G01 X11.89588 Y9.89796
G01 X11.91767 Y9.86538
G01 X11.93614 Y9.83081
G01 X11.94454 Y9.81305
G01 X11.95115 Y9.79456
G01 X11.96253 Y9.75705
G01 X11.96730 Y9.73802
G01 X11.97017 Y9.71859
G01 X11.97403 Y9.67958
G01 X11.97500 Y9.65999
G01 X11.97500 Y9.59522
G01 X11.97652 Y9.59477
G01 X12.01109 Y9.57627
G01 X12.04142 Y9.55141
G01 X12.06629 Y9.52111
G01 X12.08475 Y9.48654
G01 X12.09613 Y9.44899
G01 X12.09999 Y9.40998
G01 X12.09999 Y7.70998
G01 X12.09613 Y7.67097
G01 X12.08475 Y7.63345
G01 X12.06629 Y7.59888
G01 X12.04142 Y7.56856
G01 X12.01109 Y7.54369
G01 X11.97652 Y7.52522
G01 X11.97500 Y7.52474
G01 X11.97500 Y5.60874
G01 X12.07955 Y5.63097
G01 X12.10022 Y5.63424
G01 X12.12115 Y5.63534
G01 X12.29882 Y5.63534
G01 X12.31975 Y5.63424
G01 X12.34043 Y5.63097
G01 X12.51424 Y5.59401
G01 X12.53446 Y5.58860
G01 X12.55399 Y5.58108
G01 X12.71632 Y5.50882
G01 X12.73499 Y5.49932
G01 X12.75254 Y5.48792
G01 X12.89631 Y5.38347
G01 X12.91256 Y5.37029
G01 X12.92737 Y5.35548
G01 X13.04627 Y5.22343
G01 X13.05945 Y5.20717
G01 X13.07086 Y5.18959
G01 X13.15971 Y5.03572
G01 X13.16921 Y5.01705
G01 X13.17672 Y4.99752
G01 X13.23161 Y4.82851
G01 X13.23705 Y4.80829
G01 X13.24033 Y4.78761
G01 X13.25889 Y4.61090
G01 X13.25999 Y4.59000
G01 X13.25889 Y4.56907
G01 X13.24033 Y4.39236
G01 X13.23705 Y4.37169
G01 X13.23161 Y4.35147
G01 X13.17672 Y4.18246
G01 X13.16921 Y4.16292
G01 X13.15971 Y4.14426
G01 X13.07086 Y3.99038
G01 X13.05945 Y3.97281
G01 X13.04627 Y3.95655
G01 X12.92737 Y3.82449
G01 X12.91256 Y3.80969
G01 X12.89631 Y3.79650
G01 X12.75254 Y3.69206
G01 X12.73499 Y3.68065
G01 X12.71632 Y3.67115
G01 X12.55399 Y3.59889
G01 X12.53446 Y3.59137
G01 X12.51424 Y3.58596
G01 X12.34043 Y3.54901
G01 X12.31975 Y3.54573
G01 X12.29882 Y3.54464
G01 X12.12115 Y3.54464
G01 X12.10022 Y3.54573
G01 X12.07955 Y3.54901
G01 X11.90573 Y3.58596
G01 X11.88551 Y3.59137
G01 X11.86598 Y3.59889
G01 X11.70365 Y3.67115
G01 X11.68498 Y3.68065
G01 X11.66743 Y3.69206
G01 X11.52367 Y3.79650
G01 X11.50741 Y3.80969
G01 X11.49260 Y3.82449
G01 X11.37370 Y3.95655
G01 X11.36052 Y3.97281
G01 X11.34912 Y3.99038
G01 X11.26027 Y4.14426
G01 X11.25077 Y4.16292
G01 X11.24325 Y4.18246
G01 X11.18836 Y4.35147
G01 X11.18293 Y4.37169
G01 X11.17965 Y4.39236
G01 X11.16108 Y4.56907
G01 X11.15999 Y4.58997
G01 X11.16108 Y4.61090
G01 X11.17965 Y4.78761
G01 X11.18293 Y4.80829
G01 X11.18836 Y4.82851
G01 X11.24325 Y4.99752
G01 X11.24465 Y5.00112
G01 X11.23230 Y5.01959
G01 X11.21384 Y5.05416
G01 X11.20543 Y5.07191
G01 X11.19883 Y5.09041
G01 X11.18745 Y5.12792
G01 X11.17980 Y5.16638
G01 X11.17594 Y5.20539
G01 X11.17498 Y5.22500
G01 X11.17498 Y7.52474
G01 X11.17345 Y7.52522
G01 X11.13888 Y7.54369
G01 X11.10855 Y7.56856
G01 X11.08369 Y7.59888
G01 X11.06522 Y7.63345
G01 X11.05384 Y7.67097
G01 X11.04998 Y7.70998
G01 X11.04998 Y9.40998
G01 X11.05384 Y9.44899
G01 X11.06522 Y9.48654
G01 X11.08369 Y9.52111
G01 X11.10855 Y9.55141
G01 X11.11369 Y9.55560
G01 X10.42179 Y10.24747
G01 X5.69000 Y10.24747
G01 X5.69000 Y10.23500
G01 X5.68888 Y10.21409
G01 X5.68342 Y10.16210
G01 X5.68014 Y10.14142
G01 X5.67473 Y10.12121
G01 X5.65858 Y10.07150
G01 X5.65109 Y10.05197
G01 X5.64159 Y10.03330
G01 X5.61545 Y9.98803
G01 X5.60404 Y9.97048
G01 X5.59086 Y9.95423
G01 X5.55591 Y9.91536
G01 X5.54110 Y9.90058
G01 X5.52482 Y9.88740
G01 X5.48256 Y9.85669
G01 X5.46498 Y9.84529
G01 X5.44634 Y9.83576
G01 X5.39858 Y9.81453
G01 X5.37903 Y9.80701
G01 X5.35883 Y9.80160
G01 X5.30770 Y9.79073
G01 X5.28703 Y9.78745
G01 X5.26612 Y9.78636
G01 X5.25388 Y9.78636
G01 X5.23999 Y9.78499
G01 X3.93999 Y9.78499
G01 X3.92609 Y9.78636
G01 X3.91385 Y9.78636
G01 X3.89295 Y9.78745
G01 X3.87227 Y9.79073
G01 X3.82114 Y9.80160
G01 X3.80092 Y9.80701
G01 X3.78139 Y9.81453
G01 X3.73364 Y9.83576
G01 X3.71500 Y9.84529
G01 X3.69742 Y9.85669
G01 X3.65515 Y9.88740
G01 X3.63887 Y9.90058
G01 X3.62406 Y9.91536
G01 X3.58911 Y9.95423
G01 X3.57593 Y9.97048
G01 X3.56453 Y9.98803
G01 X3.53839 Y10.03330
G01 X3.52889 Y10.05197
G01 X3.52140 Y10.07150
G01 X3.50524 Y10.12121
G01 X3.49983 Y10.14142
G01 X3.49656 Y10.16210
G01 X3.49109 Y10.21409
G01 X3.48998 Y10.23500
G01 X3.48998 Y11.05999
G01 X3.48998 Y13.35998
G01 X3.48998 Y14.18498
G01 X3.49109 Y14.20588
G01 X3.49656 Y14.25788
G01 X3.49983 Y14.27855
G01 X3.50524 Y14.29877
G01 X3.52140 Y14.34848
G01 X3.52889 Y14.36801
G01 X3.53839 Y14.38668
G01 X3.56453 Y14.43194
G01 X3.57593 Y14.44949
G01 X3.58911 Y14.46575
G01 X3.62406 Y14.50461
G01 X3.63887 Y14.51939
G01 X3.65515 Y14.53258
G01 X3.69742 Y14.56328
G01 X3.71500 Y14.57469
G01 X3.73364 Y14.58421
G01 X3.78139 Y14.60545
G01 X3.80092 Y14.61297
G01 X3.82114 Y14.61838
G01 X3.87227 Y14.62925
G01 X3.89295 Y14.63252
G01 X3.91385 Y14.63362
G01 X3.92609 Y14.63362
G01 X3.93999 Y14.63499
G01 X4.18998 Y14.63499
G01 X4.18998 Y18.77999
G01 X3.73999 Y18.77999
G01 X3.70097 Y18.78382
G01 X3.66341 Y18.79520
G01 X3.62886 Y18.81370
G01 X3.59856 Y18.83856
G01 X3.57370 Y18.86886
G01 X3.55520 Y18.90346
G01 X3.54382 Y18.94097
G01 X3.53999 Y18.97999
G01 X3.53999 Y20.67999
G01 X3.54382 Y20.71900
G01 X3.55520 Y20.75652
G01 X3.57370 Y20.79111
G01 X3.59856 Y20.82141
G01 X3.62886 Y20.84628
G01 X3.66341 Y20.86477
G01 X3.70097 Y20.87615
G01 X3.73999 Y20.87999
G01 X5.43999 Y20.87999
G01 X5.47900 Y20.87615
G01 X5.51652 Y20.86477
G01 X5.55111 Y20.84628
G01 X5.58141 Y20.82141
G01 X5.60628 Y20.79111
G01 X5.62477 Y20.75652
G01 X5.63615 Y20.71900
G01 X5.63999 Y20.67999
G01 X5.63999 Y18.97999
G01 X5.63615 Y18.94097
G01 X5.62477 Y18.90346
G01 X5.60628 Y18.86886
G01 X5.58141 Y18.83856
G01 X5.55111 Y18.81370
G01 X5.51652 Y18.79520
G01 X5.47900 Y18.78382
G01 X5.43999 Y18.77999
G01 X4.99000 Y18.77999
G01 X4.99000 Y14.63499
G01 X5.23999 Y14.63499
G01 X5.25388 Y14.63362
G01 X5.26612 Y14.63362
G01 X5.28703 Y14.63252
G01 X5.30770 Y14.62925
G01 X5.35883 Y14.61838
G01 X5.37903 Y14.61297
G01 X5.39858 Y14.60545
G01 X5.44634 Y14.58421
G01 X5.46498 Y14.57469
G01 X5.48256 Y14.56328
G01 X5.52482 Y14.53258
G01 X5.54110 Y14.51939
G01 X5.55591 Y14.50461
G01 X5.59086 Y14.46575
G01 X5.60404 Y14.44949
G01 X5.61545 Y14.43194
G01 X5.64159 Y14.38668
G01 X5.65109 Y14.36801
G01 X5.65858 Y14.34848
G01 X5.67473 Y14.29877
G01 X5.68014 Y14.27855
G01 X5.68342 Y14.25788
G01 X5.68888 Y14.20588
G01 X5.69000 Y14.18498
G01 X5.69000 Y14.17248
G01 X6.90678 Y14.17248
G01 X7.36498 Y14.63067
G01 X7.36498 Y14.82475
G01 X7.36345 Y14.82521
G01 X7.32888 Y14.84370
G01 X7.29855 Y14.86857
G01 X7.27369 Y14.89887
G01 X7.25522 Y14.93341
G01 X7.24384 Y14.97098
G01 X7.23998 Y15.00999
G01 X7.23998 Y16.70999
G01 X7.24384 Y16.74901
G01 X7.25522 Y16.78652
G01 X7.27369 Y16.82109
G01 X7.29855 Y16.85142
G01 X7.32888 Y16.87628
G01 X7.36345 Y16.89475
G01 X7.40097 Y16.90616
G01 X7.43998 Y16.90999
G01 X8.08999 Y16.90999
G01 X8.12901 Y16.90616
G01 X8.16652 Y16.89475
G01 X8.20109 Y16.87628
G01 X8.23142 Y16.85142
G01 X8.25629 Y16.82109
G01 X8.27475 Y16.78652
G01 X8.28613 Y16.74901
G01 X8.28999 Y16.70999
G01 X8.28999 Y15.00999
G01 X8.28613 Y14.97098
G01 X8.27475 Y14.93341
G01 X8.25629 Y14.89887
G01 X8.23142 Y14.86857
G01 X8.20109 Y14.84370
G01 X8.16652 Y14.82521
G01 X8.16500 Y14.82475
G01 X8.16500 Y14.46499
G01 X8.16436 Y14.44929
G01 X8.16190 Y14.41800
G01 X8.15700 Y14.38701
G01 X8.14968 Y14.35648
G01 X8.13998 Y14.32663
G01 X8.12797 Y14.29765
G01 X8.11372 Y14.26969
G01 X8.09731 Y14.24291
G01 X8.07887 Y14.21754
G01 X8.05850 Y14.19366
G01 X8.04783 Y14.18213
G01 X7.35532 Y13.48963
G01 X7.34077 Y13.47644
G01 X7.31047 Y13.45158
G01 X7.27788 Y13.42978
G01 X7.24331 Y13.41132
G01 X7.22555 Y13.40291
G01 X7.20706 Y13.39631
G01 X7.16955 Y13.38493
G01 X7.13109 Y13.37728
G01 X7.09208 Y13.37342
G01 X7.07249 Y13.37246
G01 X5.69000 Y13.37246
G01 X5.69000 Y13.35998
G01 X5.68888 Y13.33908
G01 X5.68342 Y13.28711
G01 X5.68014 Y13.26644
G01 X5.67473 Y13.24622
G01 X5.65858 Y13.19651
G01 X5.65109 Y13.17695
G01 X5.64159 Y13.15831
G01 X5.61545 Y13.11305
G01 X5.60404 Y13.09549
G01 X5.59086 Y13.07921
G01 X5.55591 Y13.04038
G01 X5.54110 Y13.02557
G01 X5.52482 Y13.01239
G01 X5.48256 Y12.98168
G01 X5.46498 Y12.97027
G01 X5.44634 Y12.96077
G01 X5.39858 Y12.93951
G01 X5.37903 Y12.93202
G01 X5.35883 Y12.92658
G01 X5.30770 Y12.91574
G01 X5.28703 Y12.91246
G01 X5.26612 Y12.91134
G01 X5.25388 Y12.91134
G01 X5.23999 Y12.91000
G01 X3.93999 Y12.91000
G01 X3.92609 Y12.91134
G01 X3.91385 Y12.91134
G01 X3.89295 Y12.91246
G01 X3.87227 Y12.91574
G01 X3.82114 Y12.92658
G01 X3.80092 Y12.93202
G01 X3.78139 Y12.93951
G01 X3.73364 Y12.96077
G01 X3.71500 Y12.97027
G01 X3.69742 Y12.98168
G01 X3.65515 Y13.01239
G01 X3.63887 Y13.02557
G01 X3.62406 Y13.04038
G01 X3.58911 Y13.07921
G01 X3.57593 Y13.09549
G01 X3.56453 Y13.11305
G01 X3.53839 Y13.15831
G01 X3.52889 Y13.17695
G01 X3.52140 Y13.19651
G01 X3.50524 Y13.24622
G01 X3.49983 Y13.26644
G01 X3.49656 Y13.28711
G01 X3.49109 Y13.33908
G01 X3.48998 Y13.35998
G04 P0 ( dwell for no time -- G64 should not smooth over this point )
G00 Z3.00000 ( retract )

G00 X6.07999 Y19.83000 ( rapid move to begin. )
G01 F300.00000
( Mill infeed pass 1/1 )
G01 Z-3.50000
G04 P0 ( dwell for no time -- G64 should not smooth over this point )
G01 F600.00000
G01 X6.07999 Y19.83000
G01 X6.08108 Y19.80907
G01 X6.09965 Y19.63236
G01 X6.10293 Y19.61169
G01 X6.10836 Y19.59147
G01 X6.16325 Y19.42246
G01 X6.17077 Y19.40292
G01 X6.18027 Y19.38426
G01 X6.26912 Y19.23038
G01 X6.28052 Y19.21281
G01 X6.29370 Y19.19655
G01 X6.41260 Y19.06449
G01 X6.42741 Y19.04969
G01 X6.44367 Y19.03650
G01 X6.58743 Y18.93206
G01 X6.60498 Y18.92065
G01 X6.62365 Y18.91115
G01 X6.78598 Y18.83889
G01 X6.80551 Y18.83137
G01 X6.82573 Y18.82596
G01 X6.99955 Y18.78901
G01 X7.02022 Y18.78573
G01 X7.04115 Y18.78464
G01 X7.21882 Y18.78464
G01 X7.23975 Y18.78573
G01 X7.26043 Y18.78901
G01 X7.43424 Y18.82596
G01 X7.45446 Y18.83137
G01 X7.47399 Y18.83889
G01 X7.53033 Y18.86396
G01 X8.63498 Y17.75929
G01 X8.63498 Y16.89523
G01 X8.63345 Y16.89475
G01 X8.59888 Y16.87628
G01 X8.56853 Y16.85142
G01 X8.54369 Y16.82109
G01 X8.52522 Y16.78652
G01 X8.51384 Y16.74901
G01 X8.50998 Y16.70999
G01 X8.50998 Y15.00999
G01 X8.51384 Y14.97098
G01 X8.52522 Y14.93341
G01 X8.54369 Y14.89887
G01 X8.56853 Y14.86857
G01 X8.59888 Y14.84370
G01 X8.63345 Y14.82521
G01 X8.67097 Y14.81383
G01 X8.70998 Y14.80999
G01 X9.35999 Y14.80999
G01 X9.39901 Y14.81383
G01 X9.43652 Y14.82521
G01 X9.47109 Y14.84370
G01 X9.50142 Y14.86857
G01 X9.52629 Y14.89887
G01 X9.54475 Y14.93341
G01 X9.55613 Y14.97098
G01 X9.55999 Y15.00999
G01 X9.55999 Y16.70999
G01 X9.55613 Y16.74901
G01 X9.54475 Y16.78652
G01 X9.52629 Y16.82109
G01 X9.50142 Y16.85142
G01 X9.47109 Y16.87628
G01 X9.43652 Y16.89475
G01 X9.43500 Y16.89523
G01 X9.43500 Y17.92500
G01 X9.43403 Y17.94458
G01 X9.43017 Y17.98360
G01 X9.42253 Y18.02205
G01 X9.41115 Y18.05957
G01 X9.40454 Y18.07806
G01 X9.39614 Y18.09581
G01 X9.37767 Y18.13038
G01 X9.35588 Y18.16297
G01 X9.33101 Y18.19327
G01 X9.31783 Y18.20783
G01 X8.09830 Y19.42736
G01 X8.15161 Y19.59147
G01 X8.15705 Y19.61169
G01 X8.16033 Y19.63236
G01 X8.17889 Y19.80907
G01 X8.17999 Y19.83000
G01 X8.17889 Y19.85090
G01 X8.16033 Y20.02761
G01 X8.15705 Y20.04829
G01 X8.15161 Y20.06851
G01 X8.09672 Y20.23752
G01 X8.08921 Y20.25705
G01 X8.07971 Y20.27572
G01 X7.99086 Y20.42959
G01 X7.97945 Y20.44717
G01 X7.96627 Y20.46343
G01 X7.84737 Y20.59548
G01 X7.83256 Y20.61029
G01 X7.81631 Y20.62347
G01 X7.67254 Y20.72792
G01 X7.65499 Y20.73932
G01 X7.63632 Y20.74882
G01 X7.47399 Y20.82108
G01 X7.45446 Y20.82860
G01 X7.43424 Y20.83401
G01 X7.26043 Y20.87097
G01 X7.23975 Y20.87424
G01 X7.21882 Y20.87534
G01 X7.04115 Y20.87534
G01 X7.02022 Y20.87424
G01 X6.99955 Y20.87097
G01 X6.82573 Y20.83401
G01 X6.80551 Y20.82860
G01 X6.78598 Y20.82108
G01 X6.62365 Y20.74882
G01 X6.60498 Y20.73932
G01 X6.58743 Y20.72792
G01 X6.44367 Y20.62347
G01 X6.42741 Y20.61029
G01 X6.41260 Y20.59548
G01 X6.29370 Y20.46343
G01 X6.28052 Y20.44717
G01 X6.26912 Y20.42959
G01 X6.18027 Y20.27572
G01 X6.17077 Y20.25705
G01 X6.16325 Y20.23752
G01 X6.10836 Y20.06851
G01 X6.10293 Y20.04829
G01 X6.09965 Y20.02761
G01 X6.08108 Y19.85090
G01 X6.07999 Y19.83000
G04 P0 ( dwell for no time -- G64 should not smooth over this point )
G00 Z3.00000 ( retract )

G00 X8.61996 Y19.83000 ( rapid move to begin. )
G01 F300.00000
( Mill infeed pass 1/1 )
G01 Z-3.50000
G04 P0 ( dwell for no time -- G64 should not smooth over this point )
G01 F600.00000
G01 X8.61996 Y19.83000
G01 X8.62108 Y19.80907
G01 X8.63965 Y19.63236
G01 X8.64293 Y19.61169
G01 X8.64836 Y19.59147
G01 X8.70323 Y19.42246
G01 X8.71077 Y19.40292
G01 X8.72027 Y19.38426
G01 X8.80912 Y19.23038
G01 X8.82052 Y19.21281
G01 X8.83371 Y19.19655
G01 X8.95260 Y19.06449
G01 X8.96741 Y19.04969
G01 X8.98367 Y19.03650
G01 X9.12743 Y18.93206
G01 X9.14498 Y18.92065
G01 X9.16365 Y18.91115
G01 X9.32598 Y18.83889
G01 X9.34552 Y18.83137
G01 X9.36573 Y18.82596
G01 X9.53955 Y18.78901
G01 X9.56022 Y18.78573
G01 X9.58115 Y18.78464
G01 X9.75882 Y18.78464
G01 X9.77975 Y18.78573
G01 X9.80043 Y18.78901
G01 X9.90498 Y18.81123
G01 X9.90498 Y16.89523
G01 X9.90345 Y16.89475
G01 X9.86888 Y16.87628
G01 X9.83855 Y16.85142
G01 X9.81369 Y16.82109
G01 X9.79522 Y16.78652
G01 X9.78384 Y16.74901
G01 X9.77998 Y16.70999
G01 X9.77998 Y15.00999
G01 X9.78384 Y14.97098
G01 X9.79522 Y14.93341
G01 X9.81369 Y14.89887
G01 X9.83855 Y14.86857
G01 X9.86888 Y14.84370
G01 X9.90345 Y14.82521
G01 X9.94097 Y14.81383
G01 X9.97998 Y14.80999
G01 X10.62999 Y14.80999
G01 X10.66901 Y14.81383
G01 X10.70652 Y14.82521
G01 X10.74109 Y14.84370
G01 X10.77142 Y14.86857
G01 X10.79629 Y14.89887
G01 X10.81475 Y14.93341
G01 X10.82613 Y14.97098
G01 X10.82999 Y15.00999
G01 X10.82999 Y16.70999
G01 X10.82613 Y16.74901
G01 X10.81475 Y16.78652
G01 X10.79629 Y16.82109
G01 X10.77142 Y16.85142
G01 X10.74109 Y16.87628
G01 X10.70652 Y16.89475
G01 X10.70500 Y16.89523
G01 X10.70500 Y19.19500
G01 X10.70403 Y19.21458
G01 X10.70017 Y19.25360
G01 X10.69253 Y19.29205
G01 X10.68115 Y19.32957
G01 X10.67454 Y19.34806
G01 X10.66614 Y19.36581
G01 X10.64767 Y19.40038
G01 X10.63533 Y19.41885
G01 X10.63672 Y19.42246
G01 X10.69161 Y19.59147
G01 X10.69705 Y19.61169
G01 X10.70033 Y19.63236
G01 X10.71889 Y19.80907
G01 X10.71999 Y19.83000
G01 X10.71889 Y19.85090
G01 X10.70033 Y20.02761
G01 X10.69705 Y20.04829
G01 X10.69161 Y20.06851
G01 X10.63672 Y20.23752
G01 X10.62921 Y20.25705
G01 X10.61971 Y20.27572
G01 X10.53086 Y20.42959
G01 X10.51945 Y20.44717
G01 X10.50627 Y20.46343
G01 X10.38737 Y20.59548
G01 X10.37256 Y20.61029
G01 X10.35631 Y20.62347
G01 X10.21254 Y20.72792
G01 X10.19499 Y20.73932
G01 X10.17632 Y20.74882
G01 X10.01399 Y20.82108
G01 X9.99446 Y20.82860
G01 X9.97424 Y20.83401
G01 X9.80043 Y20.87097
G01 X9.77975 Y20.87424
G01 X9.75882 Y20.87534
G01 X9.58115 Y20.87534
G01 X9.56022 Y20.87424
G01 X9.53955 Y20.87097
G01 X9.36573 Y20.83401
G01 X9.34552 Y20.82860
G01 X9.32598 Y20.82108
G01 X9.16365 Y20.74882
G01 X9.14498 Y20.73932
G01 X9.12743 Y20.72792
G01 X8.98367 Y20.62347
G01 X8.96741 Y20.61029
G01 X8.95260 Y20.59548
G01 X8.83371 Y20.46343
G01 X8.82052 Y20.44717
G01 X8.80912 Y20.42959
G01 X8.72027 Y20.27572
G01 X8.71077 Y20.25705
G01 X8.70323 Y20.23752
G01 X8.64836 Y20.06851
G01 X8.64293 Y20.04829
G01 X8.63965 Y20.02761
G01 X8.62108 Y19.85090
G01 X8.61996 Y19.83000
G04 P0 ( dwell for no time -- G64 should not smooth over this point )
G00 Z3.00000 ( retract )

G00 X11.04998 Y15.00999 ( rapid move to begin. )
G01 F300.00000
( Mill infeed pass 1/1 )
G01 Z-3.50000
G04 P0 ( dwell for no time -- G64 should not smooth over this point )
G01 F600.00000
G01 X11.04998 Y15.00999
G01 X11.04998 Y16.70999
G01 X11.05384 Y16.74901
G01 X11.06522 Y16.78652
G01 X11.08369 Y16.82109
G01 X11.10855 Y16.85142
G01 X11.13888 Y16.87628
G01 X11.17345 Y16.89475
G01 X11.17498 Y16.89523
G01 X11.17498 Y19.19500
G01 X11.17594 Y19.21458
G01 X11.17980 Y19.25360
G01 X11.18745 Y19.29205
G01 X11.19883 Y19.32957
G01 X11.20543 Y19.34806
G01 X11.21384 Y19.36581
G01 X11.23230 Y19.40038
G01 X11.24465 Y19.41885
G01 X11.24325 Y19.42246
G01 X11.18836 Y19.59147
G01 X11.18293 Y19.61169
G01 X11.17965 Y19.63236
G01 X11.16108 Y19.80907
G01 X11.15999 Y19.82997
G01 X11.16108 Y19.85090
G01 X11.17965 Y20.02761
G01 X11.18293 Y20.04829
G01 X11.18836 Y20.06851
G01 X11.24325 Y20.23752
G01 X11.25077 Y20.25705
G01 X11.26027 Y20.27572
G01 X11.34912 Y20.42959
G01 X11.36052 Y20.44717
G01 X11.37370 Y20.46343
G01 X11.49260 Y20.59548
G01 X11.50741 Y20.61029
G01 X11.52367 Y20.62347
G01 X11.66743 Y20.72792
G01 X11.68498 Y20.73932
G01 X11.70365 Y20.74882
G01 X11.86598 Y20.82108
G01 X11.88551 Y20.82860
G01 X11.90573 Y20.83401
G01 X12.07955 Y20.87097
G01 X12.10022 Y20.87424
G01 X12.12115 Y20.87534
G01 X12.29882 Y20.87534
G01 X12.31975 Y20.87424
G01 X12.34043 Y20.87097
G01 X12.51424 Y20.83401
G01 X12.53446 Y20.82860
G01 X12.55399 Y20.82108
G01 X12.71632 Y20.74882
G01 X12.73499 Y20.73932
G01 X12.75254 Y20.72792
G01 X12.89631 Y20.62347
G01 X12.91256 Y20.61029
G01 X12.92737 Y20.59548
G01 X13.04627 Y20.46343
G01 X13.05945 Y20.44717
G01 X13.07086 Y20.42959
G01 X13.15971 Y20.27572
G01 X13.16921 Y20.25705
G01 X13.17672 Y20.23752
G01 X13.23161 Y20.06851
G01 X13.23705 Y20.04829
G01 X13.24033 Y20.02761
G01 X13.25889 Y19.85090
G01 X13.25999 Y19.83000
G01 X13.25889 Y19.80907
G01 X13.24033 Y19.63236
G01 X13.23705 Y19.61169
G01 X13.23161 Y19.59147
G01 X13.17672 Y19.42246
G01 X13.16921 Y19.40292
G01 X13.15971 Y19.38426
G01 X13.07086 Y19.23038
G01 X13.05945 Y19.21281
G01 X13.04627 Y19.19655
G01 X12.92737 Y19.06449
G01 X12.91256 Y19.04969
G01 X12.89631 Y19.03650
G01 X12.75254 Y18.93206
G01 X12.73499 Y18.92065
G01 X12.71632 Y18.91115
G01 X12.55399 Y18.83889
G01 X12.53446 Y18.83137
G01 X12.51424 Y18.82596
G01 X12.34043 Y18.78901
G01 X12.31975 Y18.78573
G01 X12.29882 Y18.78464
G01 X12.12115 Y18.78464
G01 X12.10022 Y18.78573
G01 X12.07955 Y18.78901
G01 X11.97500 Y18.81123
G01 X11.97500 Y16.89523
G01 X11.97652 Y16.89475
G01 X12.01109 Y16.87628
G01 X12.04142 Y16.85142
G01 X12.06629 Y16.82109
G01 X12.08475 Y16.78652
G01 X12.09613 Y16.74901
G01 X12.09999 Y16.70999
G01 X12.09999 Y15.00999
G01 X12.09613 Y14.97098
G01 X12.08475 Y14.93341
G01 X12.06629 Y14.89887
G01 X12.04142 Y14.86857
G01 X12.01109 Y14.84370
G01 X11.97652 Y14.82521
G01 X11.93901 Y14.81383
G01 X11.89999 Y14.80999
G01 X11.24998 Y14.80999
G01 X11.21097 Y14.81383
G01 X11.17345 Y14.82521
G01 X11.13888 Y14.84370
G01 X11.10855 Y14.86857
G01 X11.08369 Y14.89887
G01 X11.06522 Y14.93341
G01 X11.05384 Y14.97098
G01 X11.04998 Y15.00999
G04 P0 ( dwell for no time -- G64 should not smooth over this point )
G00 Z3.00000 ( retract )

G00 X6.07999 Y4.59000 ( rapid move to begin. )
G01 F300.00000
( Mill infeed pass 1/1 )
G01 Z-3.50000
G04 P0 ( dwell for no time -- G64 should not smooth over this point )
G01 F600.00000
G01 X6.07999 Y4.59000
G01 X6.08108 Y4.56907
G01 X6.09965 Y4.39236
G01 X6.10293 Y4.37169
G01 X6.10836 Y4.35147
G01 X6.16325 Y4.18246
G01 X6.17077 Y4.16292
G01 X6.18027 Y4.14426
G01 X6.26912 Y3.99038
G01 X6.28052 Y3.97281
G01 X6.29370 Y3.95655
G01 X6.41260 Y3.82449
G01 X6.42741 Y3.80969
G01 X6.44367 Y3.79650
G01 X6.58743 Y3.69206
G01 X6.60498 Y3.68065
G01 X6.62365 Y3.67115
G01 X6.78598 Y3.59889
G01 X6.80551 Y3.59137
G01 X6.82573 Y3.58596
G01 X6.99955 Y3.54901
G01 X7.02022 Y3.54573
G01 X7.04115 Y3.54464
G01 X7.21882 Y3.54464
G01 X7.23975 Y3.54573
G01 X7.26043 Y3.54901
G01 X7.43424 Y3.58596
G01 X7.45446 Y3.59137
G01 X7.47399 Y3.59889
G01 X7.63632 Y3.67115
G01 X7.65499 Y3.68065
G01 X7.67254 Y3.69206
G01 X7.81631 Y3.79650
G01 X7.83256 Y3.80969
G01 X7.84737 Y3.82449
G01 X7.96627 Y3.95655
G01 X7.97945 Y3.97281
G01 X7.99086 Y3.99038
G01 X8.07971 Y4.14426
G01 X8.08921 Y4.16292
G01 X8.09672 Y4.18246
G01 X8.15161 Y4.35147
G01 X8.15705 Y4.37169
G01 X8.16033 Y4.39236
G01 X8.17889 Y4.56907
G01 X8.17999 Y4.59000
G01 X8.17889 Y4.61090
G01 X8.16033 Y4.78761
G01 X8.15705 Y4.80829
G01 X8.15161 Y4.82851
G01 X8.09830 Y4.99262
G01 X9.31783 Y6.21215
G01 X9.33101 Y6.22670
G01 X9.35588 Y6.25700
G01 X9.37767 Y6.28959
G01 X9.39614 Y6.32416
G01 X9.40454 Y6.34191
G01 X9.41115 Y6.36041
G01 X9.42253 Y6.39792
G01 X9.43017 Y6.43638
G01 X9.43403 Y6.47539
G01 X9.43500 Y6.49500
G01 X9.43500 Y7.52474
G01 X9.43652 Y7.52522
G01 X9.47109 Y7.54369
G01 X9.50142 Y7.56856
G01 X9.52629 Y7.59888
G01 X9.54475 Y7.63345
G01 X9.55613 Y7.67097
G01 X9.55999 Y7.70998
G01 X9.55999 Y9.40998
G01 X9.55613 Y9.44899
G01 X9.54475 Y9.48654
G01 X9.52629 Y9.52111
G01 X9.50142 Y9.55141
G01 X9.47109 Y9.57627
G01 X9.43652 Y9.59477
G01 X9.39901 Y9.60614
G01 X9.35999 Y9.60998
G01 X8.70998 Y9.60998
G01 X8.67097 Y9.60614
G01 X8.63345 Y9.59477
G01 X8.59888 Y9.57627
G01 X8.56853 Y9.55141
G01 X8.54369 Y9.52111
G01 X8.52522 Y9.48654
G01 X8.51384 Y9.44899
G01 X8.50998 Y9.40998
G01 X8.50998 Y7.70998
G01 X8.51384 Y7.67097
G01 X8.52522 Y7.63345
G01 X8.54369 Y7.59888
G01 X8.56853 Y7.56856
G01 X8.59888 Y7.54369
G01 X8.63345 Y7.52522
G01 X8.63498 Y7.52474
G01 X8.63498 Y6.66068
G01 X7.53033 Y5.55601
G01 X7.47399 Y5.58108
G01 X7.45446 Y5.58860
G01 X7.43424 Y5.59401
G01 X7.26043 Y5.63097
G01 X7.23975 Y5.63424
G01 X7.21882 Y5.63534
G01 X7.04115 Y5.63534
G01 X7.02022 Y5.63424
G01 X6.99955 Y5.63097
G01 X6.82573 Y5.59401
G01 X6.80551 Y5.58860
G01 X6.78598 Y5.58108
G01 X6.62365 Y5.50882
G01 X6.60498 Y5.49932
G01 X6.58743 Y5.48792
G01 X6.44367 Y5.38347
G01 X6.42741 Y5.37029
G01 X6.41260 Y5.35548
G01 X6.29370 Y5.22343
G01 X6.28052 Y5.20717
G01 X6.26912 Y5.18959
G01 X6.18027 Y5.03572
G01 X6.17077 Y5.01705
G01 X6.16325 Y4.99752
G01 X6.10836 Y4.82851
G01 X6.10293 Y4.80829
G01 X6.09965 Y4.78761
G01 X6.08108 Y4.61090
G01 X6.07999 Y4.59000
G04 P0 ( dwell for no time -- G64 should not smooth over this point )
G00 Z3.00000 ( retract )

G00 X8.61996 Y4.59000 ( rapid move to begin. )
G01 F300.00000
( Mill infeed pass 1/1 )
G01 Z-3.50000
G04 P0 ( dwell for no time -- G64 should not smooth over this point )
G01 F600.00000
G01 X8.61996 Y4.59000
G01 X8.62108 Y4.56907
G01 X8.63965 Y4.39236
G01 X8.64293 Y4.37169
G01 X8.64836 Y4.35147
G01 X8.70323 Y4.18246
G01 X8.71077 Y4.16292
G01 X8.72027 Y4.14426
G01 X8.80912 Y3.99038
G01 X8.82052 Y3.97281
G01 X8.83371 Y3.95655
G01 X8.95260 Y3.82449
G01 X8.96741 Y3.80969
G01 X8.98367 Y3.79650
G01 X9.12743 Y3.69206
G01 X9.14498 Y3.68065
G01 X9.16365 Y3.67115
G01 X9.32598 Y3.59889
G01 X9.34552 Y3.59137
G01 X9.36573 Y3.58596
G01 X9.53955 Y3.54901
G01 X9.56022 Y3.54573
G01 X9.58115 Y3.54464
G01 X9.75882 Y3.54464
G01 X9.77975 Y3.54573
G01 X9.80043 Y3.54901
G01 X9.97424 Y3.58596
G01 X9.99446 Y3.59137
G01 X10.01399 Y3.59889
G01 X10.17632 Y3.67115
G01 X10.19499 Y3.68065
G01 X10.21254 Y3.69206
G01 X10.35631 Y3.79650
G01 X10.37256 Y3.80969
G01 X10.38737 Y3.82449
G01 X10.50627 Y3.95655
G01 X10.51945 Y3.97281
G01 X10.53086 Y3.99038
G01 X10.61971 Y4.14426
G01 X10.62921 Y4.16292
G01 X10.63672 Y4.18246
G01 X10.69161 Y4.35147
G01 X10.69705 Y4.37169
G01 X10.70033 Y4.39236
G01 X10.71889 Y4.56907
G01 X10.71999 Y4.59000
G01 X10.71889 Y4.61090
G01 X10.70033 Y4.78761
G01 X10.69705 Y4.80829
G01 X10.69161 Y4.82851
G01 X10.63672 Y4.99752
G01 X10.63533 Y5.00112
G01 X10.64767 Y5.01959
G01 X10.66614 Y5.05416
G01 X10.67454 Y5.07191
G01 X10.68115 Y5.09041
G01 X10.69253 Y5.12792
G01 X10.70017 Y5.16638
G01 X10.70403 Y5.20539
G01 X10.70500 Y5.22500
G01 X10.70500 Y7.52474
G01 X10.70652 Y7.52522
G01 X10.74109 Y7.54369
G01 X10.77142 Y7.56856
G01 X10.79629 Y7.59888
G01 X10.81475 Y7.63345
G01 X10.82613 Y7.67097
G01 X10.82999 Y7.70998
G01 X10.82999 Y9.40998
G01 X10.82613 Y9.44899
G01 X10.81475 Y9.48654
G01 X10.79629 Y9.52111
G01 X10.77142 Y9.55141
G01 X10.74109 Y9.57627
G01 X10.70652 Y9.59477
G01 X10.66901 Y9.60614
G01 X10.62999 Y9.60998
G01 X9.97998 Y9.60998
G01 X9.94097 Y9.60614
G01 X9.90345 Y9.59477
G01 X9.86888 Y9.57627
G01 X9.83855 Y9.55141
G01 X9.81369 Y9.52111
G01 X9.79522 Y9.48654
G01 X9.78384 Y9.44899
G01 X9.77998 Y9.40998
G01 X9.77998 Y7.70998
G01 X9.78384 Y7.67097
G01 X9.79522 Y7.63345
G01 X9.81369 Y7.59888
G01 X9.83855 Y7.56856
G01 X9.86888 Y7.54369
G01 X9.90345 Y7.52522
G01 X9.90498 Y7.52474
G01 X9.90498 Y5.60874
G01 X9.80043 Y5.63097
G01 X9.77975 Y5.63424
G01 X9.75882 Y5.63534
G01 X9.58115 Y5.63534
G01 X9.56022 Y5.63424
G01 X9.53955 Y5.63097
G01 X9.36573 Y5.59401
G01 X9.34552 Y5.58860
G01 X9.32598 Y5.58108
G01 X9.16365 Y5.50882
G01 X9.14498 Y5.49932
G01 X9.12743 Y5.48792
G01 X8.98367 Y5.38347
G01 X8.96741 Y5.37029
G01 X8.95260 Y5.35548
G01 X8.83371 Y5.22343
G01 X8.82052 Y5.20717
G01 X8.80912 Y5.18959
G01 X8.72027 Y5.03572
G01 X8.71077 Y5.01705
G01 X8.70323 Y4.99752
G01 X8.64836 Y4.82851
G01 X8.64293 Y4.80829
G01 X8.63965 Y4.78761
G01 X8.62108 Y4.61090
G01 X8.61996 Y4.59000

G04 P0 ( dwell for no time -- G64 should not smooth over this point )
G00 Z10.000000 ( retract )

M5 ( Spindle off. )
G04 P1.000000
M9 ( Coolant off. )
M2 ( Program end. )

