( pcb2gcode 2.5.0 )
( Software-independent Gcode )

G94 ( Millimeters per minute feed rate. )
G21 ( Units == Millimeters. )

G90 ( Absolute coordinates. )
G00 S10000 ( RPM spindle speed. )
G01 F600.00000 ( Feedrate. )


G00 Z10.00000 (Retract to tool change height)
T0
M5      (Spindle stop.)
G04 P1.00000 (Wait for spindle to stop)
(MSG, Change tool bit to cutter diameter 2.00000mm)
M6      (Tool change.)
M0      (Temporary machine stop.)
M3 ( Spindle on clockwise. )
G04 P1.00000 (Wait for spindle to get up to speed)
G04 P0 ( dwell for no time -- G64 should not smooth over this point )
G00 Z3.00000 ( retract )

G00 X1.05000 Y2.05000 ( rapid move to begin. )
G01 Z-0.44000 F60.00000 ( plunge. )
G04 P0 ( dwell for no time -- G64 should not smooth over this point )
G01 F600.00000
G01 X1.05000 Y10.83500
G01 X1.05000 Y13.58500
G01 X1.05000 Y22.37000
G01 X1.06923 Y22.56507
G01 X1.12613 Y22.75268
G01 X1.21853 Y22.92555
G01 X1.34291 Y23.07709
G01 X1.49445 Y23.20147
G01 X1.66732 Y23.29387
G01 X1.85493 Y23.35077
G01 X2.05000 Y23.37000
G01 X14.75000 Y23.37000
G01 X14.94507 Y23.35077
G01 X15.13268 Y23.29387
G01 X15.30555 Y23.20147
G01 X15.45709 Y23.07709
G01 X15.58147 Y22.92555
G01 X15.67387 Y22.75268
G01 X15.73077 Y22.56507
G01 X15.75000 Y22.37000
G01 X15.75000 Y13.58500
G01 X15.75000 Y10.83500
G01 X15.75000 Y2.05000
G01 X15.73077 Y1.85493
G01 X15.67387 Y1.66732
G01 X15.58147 Y1.49445
G01 X15.45709 Y1.34291
G01 X15.30555 Y1.21853
G01 X15.13268 Y1.12613
G01 X14.94507 Y1.06923
G01 X14.75000 Y1.05000
G01 X9.77500 Y1.05000
G01 X7.02500 Y1.05000
G01 X2.05000 Y1.05000
G01 X1.85493 Y1.06923
G01 X1.66732 Y1.12613
G01 X1.49445 Y1.21853
G01 X1.34291 Y1.34291
G01 X1.21853 Y1.49445
G01 X1.12613 Y1.66732
G01 X1.06923 Y1.85493
G01 X1.05000 Y2.05000
G01 Z-0.88000 F60.00000 ( plunge. )
G04 P0 ( dwell for no time -- G64 should not smooth over this point )
G01 F600.00000
G01 X1.05000 Y10.83500
G01 X1.05000 Y13.58500
G01 X1.05000 Y22.37000
G01 X1.06923 Y22.56507
G01 X1.12613 Y22.75268
G01 X1.21853 Y22.92555
G01 X1.34291 Y23.07709
G01 X1.49445 Y23.20147
G01 X1.66732 Y23.29387
G01 X1.85493 Y23.35077
G01 X2.05000 Y23.37000
G01 X14.75000 Y23.37000
G01 X14.94507 Y23.35077
G01 X15.13268 Y23.29387
G01 X15.30555 Y23.20147
G01 X15.45709 Y23.07709
G01 X15.58147 Y22.92555
G01 X15.67387 Y22.75268
G01 X15.73077 Y22.56507
G01 X15.75000 Y22.37000
G01 X15.75000 Y13.58500
G01 X15.75000 Y10.83500
G01 X15.75000 Y2.05000
G01 X15.73077 Y1.85493
G01 X15.67387 Y1.66732
G01 X15.58147 Y1.49445
G01 X15.45709 Y1.34291
G01 X15.30555 Y1.21853
G01 X15.13268 Y1.12613
G01 X14.94507 Y1.06923
G01 X14.75000 Y1.05000
G01 X9.77500 Y1.05000
G01 X7.02500 Y1.05000
G01 X2.05000 Y1.05000
G01 X1.85493 Y1.06923
G01 X1.66732 Y1.12613
G01 X1.49445 Y1.21853
G01 X1.34291 Y1.34291
G01 X1.21853 Y1.49445
G01 X1.12613 Y1.66732
G01 X1.06923 Y1.85493
G01 X1.05000 Y2.05000
G01 Z-1.32000 F60.00000 ( plunge. )
G04 P0 ( dwell for no time -- G64 should not smooth over this point )
G01 F600.00000
G01 X1.05000 Y10.83500
G00 Z-1.00000
G01 X1.05000 Y13.58500
G01 Z-1.32000 F60.00000
G01 F600.00000
G01 X1.05000 Y22.37000
G01 X1.06923 Y22.56507
G01 X1.12613 Y22.75268
G01 X1.21853 Y22.92555
G01 X1.34291 Y23.07709
G01 X1.49445 Y23.20147
G01 X1.66732 Y23.29387
G01 X1.85493 Y23.35077
G01 X2.05000 Y23.37000
G01 X14.75000 Y23.37000
G01 X14.94507 Y23.35077
G01 X15.13268 Y23.29387
G01 X15.30555 Y23.20147
G01 X15.45709 Y23.07709
G01 X15.58147 Y22.92555
G01 X15.67387 Y22.75268
G01 X15.73077 Y22.56507
G01 X15.75000 Y22.37000
G01 X15.75000 Y13.58500
G00 Z-1.00000
G01 X15.75000 Y10.83500
G01 Z-1.32000 F60.00000
G01 F600.00000
G01 X15.75000 Y2.05000
G01 X15.73077 Y1.85493
G01 X15.67387 Y1.66732
G01 X15.58147 Y1.49445
G01 X15.45709 Y1.34291
G01 X15.30555 Y1.21853
G01 X15.13268 Y1.12613
G01 X14.94507 Y1.06923
G01 X14.75000 Y1.05000
G01 X9.77500 Y1.05000
G00 Z-1.00000
G01 X7.02500 Y1.05000
G01 Z-1.32000 F60.00000
G01 F600.00000
G01 X2.05000 Y1.05000
G01 X1.85493 Y1.06923
G01 X1.66732 Y1.12613
G01 X1.49445 Y1.21853
G01 X1.34291 Y1.34291
G01 X1.21853 Y1.49445
G01 X1.12613 Y1.66732
G01 X1.06923 Y1.85493
G01 X1.05000 Y2.05000
G01 Z-1.76000 F60.00000 ( plunge. )
G04 P0 ( dwell for no time -- G64 should not smooth over this point )
G01 F600.00000
G01 X1.05000 Y10.83500
G00 Z-1.00000
G01 X1.05000 Y13.58500
G01 Z-1.76000 F60.00000
G01 F600.00000
G01 X1.05000 Y22.37000
G01 X1.06923 Y22.56507
G01 X1.12613 Y22.75268
G01 X1.21853 Y22.92555
G01 X1.34291 Y23.07709
G01 X1.49445 Y23.20147
G01 X1.66732 Y23.29387
G01 X1.85493 Y23.35077
G01 X2.05000 Y23.37000
G01 X14.75000 Y23.37000
G01 X14.94507 Y23.35077
G01 X15.13268 Y23.29387
G01 X15.30555 Y23.20147
G01 X15.45709 Y23.07709
G01 X15.58147 Y22.92555
G01 X15.67387 Y22.75268
G01 X15.73077 Y22.56507
G01 X15.75000 Y22.37000
G01 X15.75000 Y13.58500
G00 Z-1.00000
G01 X15.75000 Y10.83500
G01 Z-1.76000 F60.00000
G01 F600.00000
G01 X15.75000 Y2.05000
G01 X15.73077 Y1.85493
G01 X15.67387 Y1.66732
G01 X15.58147 Y1.49445
G01 X15.45709 Y1.34291
G01 X15.30555 Y1.21853
G01 X15.13268 Y1.12613
G01 X14.94507 Y1.06923
G01 X14.75000 Y1.05000
G01 X9.77500 Y1.05000
G00 Z-1.00000
G01 X7.02500 Y1.05000
G01 Z-1.76000 F60.00000
G01 F600.00000
G01 X2.05000 Y1.05000
G01 X1.85493 Y1.06923
G01 X1.66732 Y1.12613
G01 X1.49445 Y1.21853
G01 X1.34291 Y1.34291
G01 X1.21853 Y1.49445
G01 X1.12613 Y1.66732
G01 X1.06923 Y1.85493
G01 X1.05000 Y2.05000
G01 Z-2.20000 F60.00000 ( plunge. )
G04 P0 ( dwell for no time -- G64 should not smooth over this point )
G01 F600.00000
G01 X1.05000 Y10.83500
G00 Z-1.00000
G01 X1.05000 Y13.58500
G01 Z-2.20000 F60.00000
G01 F600.00000
G01 X1.05000 Y22.37000
G01 X1.06923 Y22.56507
G01 X1.12613 Y22.75268
G01 X1.21853 Y22.92555
G01 X1.34291 Y23.07709
G01 X1.49445 Y23.20147
G01 X1.66732 Y23.29387
G01 X1.85493 Y23.35077
G01 X2.05000 Y23.37000
G01 X14.75000 Y23.37000
G01 X14.94507 Y23.35077
G01 X15.13268 Y23.29387
G01 X15.30555 Y23.20147
G01 X15.45709 Y23.07709
G01 X15.58147 Y22.92555
G01 X15.67387 Y22.75268
G01 X15.73077 Y22.56507
G01 X15.75000 Y22.37000
G01 X15.75000 Y13.58500
G00 Z-1.00000
G01 X15.75000 Y10.83500
G01 Z-2.20000 F60.00000
G01 F600.00000
G01 X15.75000 Y2.05000
G01 X15.73077 Y1.85493
G01 X15.67387 Y1.66732
G01 X15.58147 Y1.49445
G01 X15.45709 Y1.34291
G01 X15.30555 Y1.21853
G01 X15.13268 Y1.12613
G01 X14.94507 Y1.06923
G01 X14.75000 Y1.05000
G01 X9.77500 Y1.05000
G00 Z-1.00000
G01 X7.02500 Y1.05000
G01 Z-2.20000 F60.00000
G01 F600.00000
G01 X2.05000 Y1.05000
G01 X1.85493 Y1.06923
G01 X1.66732 Y1.12613
G01 X1.49445 Y1.21853
G01 X1.34291 Y1.34291
G01 X1.21853 Y1.49445
G01 X1.12613 Y1.66732
G01 X1.06923 Y1.85493
G01 X1.05000 Y2.05000

G04 P0 ( dwell for no time -- G64 should not smooth over this point )
G00 Z10.000000 ( retract )

M5 ( Spindle off. )
G04 P1.000000
M9 ( Coolant off. )
M2 ( Program end. )

